static/img/kroki/35978d864f84be33cb56b36076b19ac9.svg

<?xml version="1.0" encoding="us-ascii" standalone="no"?><svg xmlns="http://www.w3.org/2000/svg" xmlns:xlink="http://www.w3.org/1999/xlink" contentStyleType="text/css" height="793px" preserveAspectRatio="none" style="width:367px;height:793px;" version="1.1" viewBox="0 0 367 793" width="367px" zoomAndPan="magnify"><defs/><g><!--class digitalocean_region--><g id="elem_digitalocean_region"><rect codeLine="22" fill="#3D176E" height="152.9766" id="digitalocean_region" rx="2.5" ry="2.5" style="stroke:#000D19;stroke-width:0.5;" width="270" x="79.5" y="633.84"/><ellipse cx="123.75" cy="653.7345" fill="#ADD1B2" rx="11" ry="11" style="stroke:#181818;stroke-width:1.0;"/><path d="M126.7188,659.3752 Q126.1406,659.672 125.5,659.8127 Q124.8594,659.9689 124.1563,659.9689 Q121.6563,659.9689 120.3281,658.3283 Q119.0156,656.672 119.0156,653.547 Q119.0156,650.422 120.3281,648.7658 Q121.6563,647.1095 124.1563,647.1095 Q124.8594,647.1095 125.5,647.2658 Q126.1563,647.422 126.7188,647.7189 L126.7188,650.4377 Q126.0938,649.8595 125.5,649.5939 Q124.9063,649.3127 124.2813,649.3127 Q122.9375,649.3127 122.25,650.3908 Q121.5625,651.4533 121.5625,653.547 Q121.5625,655.6408 122.25,656.7189 Q122.9375,657.7814 124.2813,657.7814 Q124.9063,657.7814 125.5,657.5158 Q126.0938,657.2345 126.7188,656.6564 L126.7188,659.3752 Z " fill="#000000"/><text fill="#D9B8FF" font-family="Helvetica" font-size="17" lengthAdjust="spacing" textLength="163" x="149.25" y="659.6198">digitalocean_region</text><line style="stroke:#000D19;stroke-width:0.5;" x1="80.5" x2="348.5" y1="673.6291" y2="673.6291"/><text fill="#D9B8FF" font-family="sans-serif" font-size="14" font-weight="bold" lengthAdjust="spacing" textLength="190" x="90.5" y="695.6242">do_region_droplet_sizes</text><text fill="#D9B8FF" font-family="sans-serif" font-size="14" lengthAdjust="spacing" textLength="58" x="280.5" y="695.6242">: string[]</text><text fill="#D9B8FF" font-family="sans-serif" font-size="14" font-weight="bold" lengthAdjust="spacing" textLength="152" x="90.5" y="721.9211">do_region_features</text><text fill="#D9B8FF" font-family="sans-serif" font-size="14" lengthAdjust="spacing" textLength="58" x="242.5" y="721.9211">: string[]</text><text fill="#D9B8FF" font-family="sans-serif" font-size="14" font-weight="bold" lengthAdjust="spacing" textLength="118" x="90.5" y="748.2179">do_region_slug</text><text fill="#D9B8FF" font-family="sans-serif" font-size="14" lengthAdjust="spacing" textLength="48" x="208.5" y="748.2179">: string</text><text fill="#D9B8FF" font-family="sans-serif" font-size="14" font-weight="bold" lengthAdjust="spacing" textLength="88" x="90.5" y="774.5148">is_available</text><text fill="#D9B8FF" font-family="sans-serif" font-size="14" lengthAdjust="spacing" textLength="65" x="178.5" y="774.5148">: boolean</text></g><!--class digitalocean_resource--><g id="elem_digitalocean_resource"><rect codeLine="28" fill="#3D176E" height="74.0859" id="digitalocean_resource" rx="2.5" ry="2.5" style="stroke:#000D19;stroke-width:0.5;" width="223" x="7" y="438.76"/><ellipse cx="22" cy="458.6545" fill="#ADD1B2" rx="11" ry="11" style="stroke:#181818;stroke-width:1.0;"/><path d="M24.9688,464.2952 Q24.3906,464.592 23.75,464.7327 Q23.1094,464.8889 22.4063,464.8889 Q19.9063,464.8889 18.5781,463.2483 Q17.2656,461.592 17.2656,458.467 Q17.2656,455.342 18.5781,453.6858 Q19.9063,452.0295 22.4063,452.0295 Q23.1094,452.0295 23.75,452.1858 Q24.4063,452.342 24.9688,452.6389 L24.9688,455.3577 Q24.3438,454.7795 23.75,454.5139 Q23.1563,454.2327 22.5313,454.2327 Q21.1875,454.2327 20.5,455.3108 Q19.8125,456.3733 19.8125,458.467 Q19.8125,460.5608 20.5,461.6389 Q21.1875,462.7014 22.5313,462.7014 Q23.1563,462.7014 23.75,462.4358 Q24.3438,462.1545 24.9688,461.5764 L24.9688,464.2952 Z " fill="#000000"/><text fill="#D9B8FF" font-family="Helvetica" font-size="17" lengthAdjust="spacing" textLength="181" x="41" y="464.5398">digitalocean_resource</text><line style="stroke:#000D19;stroke-width:0.5;" x1="8" x2="229" y1="478.5491" y2="478.5491"/><text fill="#D9B8FF" font-family="sans-serif" font-size="14" font-weight="bold" lengthAdjust="spacing" textLength="27" x="18" y="500.5442">urn</text><text fill="#D9B8FF" font-family="sans-serif" font-size="14" lengthAdjust="spacing" textLength="48" x="45" y="500.5442">: string</text></g><!--class region--><g id="elem_region"><rect codeLine="31" fill="#3D176E" height="39.7891" id="region" rx="2.5" ry="2.5" style="stroke:#000D19;stroke-width:0.5;" width="95" x="265" y="455.91"/><ellipse cx="280" cy="475.8045" fill="#ADD1B2" rx="11" ry="11" style="stroke:#181818;stroke-width:1.0;"/><path d="M282.9688,481.4452 Q282.3906,481.742 281.75,481.8827 Q281.1094,482.0389 280.4063,482.0389 Q277.9063,482.0389 276.5781,480.3983 Q275.2656,478.742 275.2656,475.617 Q275.2656,472.492 276.5781,470.8358 Q277.9063,469.1795 280.4063,469.1795 Q281.1094,469.1795 281.75,469.3358 Q282.4063,469.492 282.9688,469.7889 L282.9688,472.5077 Q282.3438,471.9295 281.75,471.6639 Q281.1563,471.3827 280.5313,471.3827 Q279.1875,471.3827 278.5,472.4608 Q277.8125,473.5233 277.8125,475.617 Q277.8125,477.7108 278.5,478.7889 Q279.1875,479.8514 280.5313,479.8514 Q281.1563,479.8514 281.75,479.5858 Q282.3438,479.3045 282.9688,478.7264 L282.9688,481.4452 Z " fill="#000000"/><text fill="#D9B8FF" font-family="Helvetica" font-size="17" lengthAdjust="spacing" textLength="53" x="299" y="481.6898">region</text></g><!--class resource--><g id="elem_resource"><rect codeLine="33" fill="#3D176E" height="310.7578" id="resource" rx="2.5" ry="2.5" style="stroke:#000D19;stroke-width:0.5;" width="227" x="101" y="7"/><ellipse cx="169.75" cy="26.8945" fill="#ADD1B2" rx="11" ry="11" style="stroke:#181818;stroke-width:1.0;"/><path d="M172.7188,32.5352 Q172.1406,32.832 171.5,32.9727 Q170.8594,33.1289 170.1563,33.1289 Q167.6563,33.1289 166.3281,31.4883 Q165.0156,29.832 165.0156,26.707 Q165.0156,23.582 166.3281,21.9258 Q167.6563,20.2695 170.1563,20.2695 Q170.8594,20.2695 171.5,20.4258 Q172.1563,20.582 172.7188,20.8789 L172.7188,23.5977 Q172.0938,23.0195 171.5,22.7539 Q170.9063,22.4727 170.2813,22.4727 Q168.9375,22.4727 168.25,23.5508 Q167.5625,24.6133 167.5625,26.707 Q167.5625,28.8008 168.25,29.8789 Q168.9375,30.9414 170.2813,30.9414 Q170.9063,30.9414 171.5,30.6758 Q172.0938,30.3945 172.7188,29.8164 L172.7188,32.5352 Z " fill="#000000"/><text fill="#D9B8FF" font-family="Helvetica" font-size="17" lengthAdjust="spacing" textLength="71" x="195.25" y="32.7798">resource</text><line style="stroke:#000D19;stroke-width:0.5;" x1="102" x2="327" y1="46.7891" y2="46.7891"/><text fill="#D9B8FF" font-family="sans-serif" font-size="14" font-weight="bold" lengthAdjust="spacing" textLength="29" x="112" y="68.7842">age</text><text fill="#D9B8FF" font-family="sans-serif" font-size="14" lengthAdjust="spacing" textLength="66" x="141" y="68.7842">: duration</text><text fill="#D9B8FF" font-family="sans-serif" font-size="14" font-weight="bold" lengthAdjust="spacing" textLength="43" x="112" y="95.0811">atime</text><text fill="#D9B8FF" font-family="sans-serif" font-size="14" lengthAdjust="spacing" textLength="70" x="155" y="95.0811">: datetime</text><text fill="#D9B8FF" font-family="sans-serif" font-size="14" font-weight="bold" lengthAdjust="spacing" textLength="43" x="112" y="121.3779">ctime</text><text fill="#D9B8FF" font-family="sans-serif" font-size="14" lengthAdjust="spacing" textLength="70" x="155" y="121.3779">: datetime</text><text fill="#D9B8FF" font-family="sans-serif" font-size="14" font-weight="bold" lengthAdjust="spacing" textLength="14" x="112" y="147.6748">id</text><text fill="#D9B8FF" font-family="sans-serif" font-size="14" lengthAdjust="spacing" textLength="48" x="126" y="147.6748">: string</text><text fill="#D9B8FF" font-family="sans-serif" font-size="14" font-weight="bold" lengthAdjust="spacing" textLength="33" x="112" y="173.9717">kind</text><text fill="#D9B8FF" font-family="sans-serif" font-size="14" lengthAdjust="spacing" textLength="48" x="145" y="173.9717">: string</text><text fill="#D9B8FF" font-family="sans-serif" font-size="14" font-weight="bold" lengthAdjust="spacing" textLength="90" x="112" y="200.2686">last_access</text><text fill="#D9B8FF" font-family="sans-serif" font-size="14" lengthAdjust="spacing" textLength="66" x="202" y="200.2686">: duration</text><text fill="#D9B8FF" font-family="sans-serif" font-size="14" font-weight="bold" lengthAdjust="spacing" textLength="90" x="112" y="226.5654">last_update</text><text fill="#D9B8FF" font-family="sans-serif" font-size="14" lengthAdjust="spacing" textLength="66" x="202" y="226.5654">: duration</text><text fill="#D9B8FF" font-family="sans-serif" font-size="14" font-weight="bold" lengthAdjust="spacing" textLength="48" x="112" y="252.8623">mtime</text><text fill="#D9B8FF" font-family="sans-serif" font-size="14" lengthAdjust="spacing" textLength="70" x="160" y="252.8623">: datetime</text><text fill="#D9B8FF" font-family="sans-serif" font-size="14" font-weight="bold" lengthAdjust="spacing" textLength="43" x="112" y="279.1592">name</text><text fill="#D9B8FF" font-family="sans-serif" font-size="14" lengthAdjust="spacing" textLength="48" x="155" y="279.1592">: string</text><text fill="#D9B8FF" font-family="sans-serif" font-size="14" font-weight="bold" lengthAdjust="spacing" textLength="34" x="112" y="305.4561">tags</text><text fill="#D9B8FF" font-family="sans-serif" font-size="14" lengthAdjust="spacing" textLength="171" x="146" y="305.4561">: dictionary[string, string]</text></g><!--reverse link digitalocean_resource to digitalocean_region--><g id="link_digitalocean_resource_digitalocean_region"><path codeLine="45" d="M141.39,532.24 C153.88,562.49 169.52,600.39 183.13,633.35 " fill="none" id="digitalocean_resource-backto-digitalocean_region" style="stroke:#FFAF37;stroke-width:2.0;"/><polygon fill="none" points="134.66,535.29,133.5,514.13,147.6,529.95,134.66,535.29" style="stroke:#FFAF37;stroke-width:2.0;"/></g><!--reverse link region to digitalocean_region--><g id="link_region_digitalocean_region"><path codeLine="46" d="M296.42,514.96 C282.92,546.99 263.22,593.73 246.52,633.35 " fill="none" id="region-backto-digitalocean_region" style="stroke:#FFAF37;stroke-width:2.0;"/><polygon fill="none" points="290.26,512.54,304.48,496.83,303.16,517.98,290.26,512.54" style="stroke:#FFAF37;stroke-width:2.0;"/></g><!--reverse link resource to digitalocean_resource--><g id="link_resource_digitalocean_resource"><path codeLine="47" d="M160.61,338.19 C148.87,376.28 137.61,412.82 129.69,438.51 " fill="none" id="resource-backto-digitalocean_resource" style="stroke:#FFAF37;stroke-width:2.0;"/><polygon fill="none" points="154.2,336.23,166.78,319.18,167.58,340.35,154.2,336.23" style="stroke:#FFAF37;stroke-width:2.0;"/></g><!--reverse link resource to region--><g id="link_resource_region"><path codeLine="48" d="M269.45,337.99 C284.46,385.71 298.72,431.02 306.47,455.65 " fill="none" id="resource-backto-region" style="stroke:#FFAF37;stroke-width:2.0;"/><polygon fill="none" points="262.54,340.36,263.21,319.18,275.89,336.15,262.54,340.36" style="stroke:#FFAF37;stroke-width:2.0;"/></g><!--SRC=[XPD1J-Cm48Nl_HMMk5LKQhTQIbTxwLP2x0KXu8PGDB4dgLN7ZiOJK67tl-CqfRX92BValSzldYVAHYiKM9Iy4mKMAP8V-Qss9H0KOaNaNjREE19dMGRPVD4shvpbRu4RA51Setb6rXBQnCD6owr5xyMFoFe3SfkJgwngufd0-c2XvOXQ6_1-nKmwhHYZCcgPNcPPcso7ditLR7617SoHGZeWq-bKpPPjvDjHW_S-4lVw5SKiNjgDO-pKx8pOKuCjQo8gsRdeX_zbnrjGIjjS_8oqkwOJMQGJ_Nu3ohtKT0R6nsCy8w7ZNOdhpgrmUQcoHI_yzojOrfiJIkUQmJY9O1F2N3ihtaRZiNA7jqIHAmrouiE2_NZyAsHJwFVuT49b25pH0E1DbN-QmT8-WMVG1bA3jP4wPqA9qV_-PjvL977VhI8R9Ntmn_AVGdG6ylqGLH5mm6g5TT5em5W_1qtsQ5gTr0uhFXN2B4v0ol3RjIRidQgiirfEqJF7GYCTWndo9b7B-XZGxh7npW_CKxXg_vP-_vjC9dtVTdJOqX0mbD5uRQWv-Wu0]--></g></svg>

<svg xmlns="http://www.w3.org/2000/svg" width="367" height="793" preserveAspectRatio="none" style="width:367px;height:793px"><rect width="270" height="152.977" x="79.5" y="633.84" fill="#3D176E" rx="2.5" ry="2.5" style="stroke:#000d19;stroke-width:.5"/><circle cx="123.75" cy="653.735" r="11" fill="#ADD1B2" style="stroke:#181818;stroke-width:1"/><path d="M126.719 659.375q-.578.297-1.219.438-.64.156-1.344.156-2.5 0-3.828-1.64-1.312-1.657-1.312-4.782t1.312-4.781q1.328-1.656 3.828-1.656.703 0 1.344.156.656.156 1.219.453v2.719q-.625-.578-1.219-.844-.594-.281-1.219-.281-1.344 0-2.031 1.078-.688 1.062-.688 3.156 0 2.094.688 3.172.688 1.062 2.031 1.062.625 0 1.219-.265.594-.281 1.219-.86v2.72Z"/><text x="149.25" y="659.62" fill="#D9B8FF" font-family="Helvetica" font-size="17" textLength="163">digitalocean_region</text><path d="M80.5 673.629h268" style="stroke:#000d19;stroke-width:.5"/><text x="90.5" y="695.624" fill="#D9B8FF" font-family="sans-serif" font-size="14" font-weight="bold" textLength="190">do_region_droplet_sizes</text><text x="280.5" y="695.624" fill="#D9B8FF" font-family="sans-serif" font-size="14" textLength="58">: string[]</text><text x="90.5" y="721.921" fill="#D9B8FF" font-family="sans-serif" font-size="14" font-weight="bold" textLength="152">do_region_features</text><text x="242.5" y="721.921" fill="#D9B8FF" font-family="sans-serif" font-size="14" textLength="58">: string[]</text><text x="90.5" y="748.218" fill="#D9B8FF" font-family="sans-serif" font-size="14" font-weight="bold" textLength="118">do_region_slug</text><text x="208.5" y="748.218" fill="#D9B8FF" font-family="sans-serif" font-size="14" textLength="48">: string</text><text x="90.5" y="774.515" fill="#D9B8FF" font-family="sans-serif" font-size="14" font-weight="bold" textLength="88">is_available</text><text x="178.5" y="774.515" fill="#D9B8FF" font-family="sans-serif" font-size="14" textLength="65">: boolean</text><rect width="223" height="74.086" x="7" y="438.76" fill="#3D176E" rx="2.5" ry="2.5" style="stroke:#000d19;stroke-width:.5"/><circle cx="22" cy="458.654" r="11" fill="#ADD1B2" style="stroke:#181818;stroke-width:1"/><path d="M24.969 464.295q-.578.297-1.219.438-.64.156-1.344.156-2.5 0-3.828-1.64-1.312-1.657-1.312-4.782t1.312-4.781q1.328-1.656 3.828-1.656.703 0 1.344.156.656.156 1.219.453v2.719q-.625-.579-1.219-.844-.594-.281-1.219-.281-1.343 0-2.031 1.078-.688 1.062-.688 3.156 0 2.094.688 3.172.688 1.062 2.031 1.062.625 0 1.219-.265.594-.281 1.219-.86v2.72Z"/><text x="41" y="464.54" fill="#D9B8FF" font-family="Helvetica" font-size="17" textLength="181">digitalocean_resource</text><path d="M8 478.549h221" style="stroke:#000d19;stroke-width:.5"/><text x="18" y="500.544" fill="#D9B8FF" font-family="sans-serif" font-size="14" font-weight="bold" textLength="27">urn</text><text x="45" y="500.544" fill="#D9B8FF" font-family="sans-serif" font-size="14" textLength="48">: string</text><rect width="95" height="39.789" x="265" y="455.91" fill="#3D176E" rx="2.5" ry="2.5" style="stroke:#000d19;stroke-width:.5"/><circle cx="280" cy="475.805" r="11" fill="#ADD1B2" style="stroke:#181818;stroke-width:1"/><path d="M282.969 481.445q-.578.297-1.219.438-.64.156-1.344.156-2.5 0-3.828-1.64-1.312-1.657-1.312-4.782t1.312-4.781q1.328-1.656 3.828-1.656.703 0 1.344.156.656.156 1.219.453v2.719q-.625-.578-1.219-.844-.594-.281-1.219-.281-1.344 0-2.031 1.078-.688 1.062-.688 3.156 0 2.094.688 3.172.688 1.062 2.031 1.062.625 0 1.219-.265.594-.281 1.219-.86v2.72Z"/><text x="299" y="481.69" fill="#D9B8FF" font-family="Helvetica" font-size="17" textLength="53">region</text><rect width="227" height="310.758" x="101" y="7" fill="#3D176E" rx="2.5" ry="2.5" style="stroke:#000d19;stroke-width:.5"/><circle cx="169.75" cy="26.895" r="11" fill="#ADD1B2" style="stroke:#181818;stroke-width:1"/><path d="M172.719 32.535q-.578.297-1.219.438-.64.156-1.344.156-2.5 0-3.828-1.64-1.312-1.657-1.312-4.782t1.312-4.781q1.328-1.656 3.828-1.656.703 0 1.344.156.656.156 1.219.453v2.719q-.625-.578-1.219-.844-.594-.281-1.219-.281-1.344 0-2.031 1.078-.688 1.062-.688 3.156 0 2.094.688 3.172.688 1.062 2.031 1.062.625 0 1.219-.265.594-.281 1.219-.86v2.72Z"/><text x="195.25" y="32.78" fill="#D9B8FF" font-family="Helvetica" font-size="17" textLength="71">resource</text><path d="M102 46.789h225" style="stroke:#000d19;stroke-width:.5"/><text x="112" y="68.784" fill="#D9B8FF" font-family="sans-serif" font-size="14" font-weight="bold" textLength="29">age</text><text x="141" y="68.784" fill="#D9B8FF" font-family="sans-serif" font-size="14" textLength="66">: duration</text><text x="112" y="95.081" fill="#D9B8FF" font-family="sans-serif" font-size="14" font-weight="bold" textLength="43">atime</text><text x="155" y="95.081" fill="#D9B8FF" font-family="sans-serif" font-size="14" textLength="70">: datetime</text><text x="112" y="121.378" fill="#D9B8FF" font-family="sans-serif" font-size="14" font-weight="bold" textLength="43">ctime</text><text x="155" y="121.378" fill="#D9B8FF" font-family="sans-serif" font-size="14" textLength="70">: datetime</text><text x="112" y="147.675" fill="#D9B8FF" font-family="sans-serif" font-size="14" font-weight="bold" textLength="14">id</text><text x="126" y="147.675" fill="#D9B8FF" font-family="sans-serif" font-size="14" textLength="48">: string</text><text x="112" y="173.972" fill="#D9B8FF" font-family="sans-serif" font-size="14" font-weight="bold" textLength="33">kind</text><text x="145" y="173.972" fill="#D9B8FF" font-family="sans-serif" font-size="14" textLength="48">: string</text><text x="112" y="200.269" fill="#D9B8FF" font-family="sans-serif" font-size="14" font-weight="bold" textLength="90">last_access</text><text x="202" y="200.269" fill="#D9B8FF" font-family="sans-serif" font-size="14" textLength="66">: duration</text><text x="112" y="226.565" fill="#D9B8FF" font-family="sans-serif" font-size="14" font-weight="bold" textLength="90">last_update</text><text x="202" y="226.565" fill="#D9B8FF" font-family="sans-serif" font-size="14" textLength="66">: duration</text><text x="112" y="252.862" fill="#D9B8FF" font-family="sans-serif" font-size="14" font-weight="bold" textLength="48">mtime</text><text x="160" y="252.862" fill="#D9B8FF" font-family="sans-serif" font-size="14" textLength="70">: datetime</text><text x="112" y="279.159" fill="#D9B8FF" font-family="sans-serif" font-size="14" font-weight="bold" textLength="43">name</text><text x="155" y="279.159" fill="#D9B8FF" font-family="sans-serif" font-size="14" textLength="48">: string</text><text x="112" y="305.456" fill="#D9B8FF" font-family="sans-serif" font-size="14" font-weight="bold" textLength="34">tags</text><text x="146" y="305.456" fill="#D9B8FF" font-family="sans-serif" font-size="14" textLength="171">: dictionary[string, string]</text><g fill="none"><path d="M141.39 532.24c12.49 30.25 28.13 68.15 41.74 101.11" style="stroke:#ffaf37;stroke-width:2"/><path d="m134.66 535.29-1.16-21.16 14.1 15.82-12.94 5.34z" style="stroke:#ffaf37;stroke-width:2"/></g><path fill="none" d="m296.42 514.96-49.9 118.39m43.74-120.81 14.22-15.71-1.32 21.15-12.9-5.44z" style="stroke:#ffaf37;stroke-width:2"/><g fill="none"><path d="M160.61 338.19c-11.74 38.09-23 74.63-30.92 100.32" style="stroke:#ffaf37;stroke-width:2"/><path d="m154.2 336.23 12.58-17.05.8 21.17-13.38-4.12z" style="stroke:#ffaf37;stroke-width:2"/></g><g fill="none"><path d="M269.45 337.99c15.01 47.72 29.27 93.03 37.02 117.66" style="stroke:#ffaf37;stroke-width:2"/><path d="m262.54 340.36.67-21.18 12.68 16.97-13.35 4.21z" style="stroke:#ffaf37;stroke-width:2"/></g></svg>
